docs/icons/ixigua.svg

<svg xmlns="http://www.w3.org/2000/svg" xmlns:xlink="http://www.w3.org/1999/xlink" width="30" height="30" viewBox="0 0 30 30" fill="none"><defs><rect id="path_0" x="0" y="0" width="30" height="30" /><rect id="path_1" x="0" y="0" width="20" height="20" /></defs><g opacity="1" transform="translate(0 0)  rotate(0 15 15)"><mask id="bg-mask" fill="white"><use xlink:href="#path_0"></use></mask><g mask="url(#bg-mask)" ><path id="矩形 1" fill-rule="evenodd"  transform="translate(0 0)  rotate(0 15 15)" opacity="1" d="M0,30L30,30L30,0L0,0L0,30Z " /><g opacity="1" transform="translate(5 5)  rotate(0 10 10)"><mask id="bg-mask" fill="white"><use xlink:href="#path_1"></use></mask><g mask="url(#bg-mask)" ><path id="分组 1" fill-rule="evenodd" style="fill:#FE0E50" transform="translate(1.2617074059622768 1.2656256226416096)  rotate(0 8.728545315693223 8.728539331277087)" opacity="1" d="M12.12 0.69C9.95 -0.23 7.5 -0.23 5.33 0.69C3.24 1.58 1.58 3.25 0.69 5.34C0.23 6.41 0 7.56 0 8.73L0 9.17C0.02 9.66 0.21 10.13 0.53 10.5C0.85 10.86 1.27 11.11 1.74 11.22C2.86 11.41 3.9 11.94 4.71 12.75C5.51 13.54 6.05 14.56 6.24 15.68C6.46 16.69 7.34 17.42 8.37 17.46L8.73 17.46C9.89 17.46 11.05 17.23 12.12 16.77C15.36 15.41 17.46 12.24 17.46 8.73C17.46 7.56 17.23 6.41 16.77 5.34C16.33 4.3 15.7 3.36 14.9 2.56C14.1 1.76 13.16 1.13 12.12 0.69Z M10.2938 6.29009C9.60383 5.89009 8.87383 5.59009 8.10383 5.39009C7.74383 5.30009 7.36383 5.36009 7.04383 5.55009C6.72383 5.73009 6.48383 6.03009 6.37383 6.37009C6.15383 7.13009 6.04383 7.91009 6.05383 8.69009C6.05383 9.35009 6.16383 10.1201 6.37383 11.0101C6.47383 11.3701 6.71383 11.6801 7.03383 11.8701C7.35383 12.0601 7.74383 12.1201 8.10383 12.0301C8.87383 11.8501 9.61383 11.5601 10.2938 11.1601C10.9638 10.7601 11.5738 10.2801 12.1138 9.71009C12.3838 9.45009 12.5238 9.09009 12.5138 8.71009C12.5238 8.34009 12.3838 7.97009 12.1138 7.71009C11.5738 7.15009 10.9638 6.67009 10.2938 6.29009Z " /></g></g></g></g></svg>

<svg xmlns="http://www.w3.org/2000/svg" xmlns:xlink="http://www.w3.org/1999/xlink" width="30" height="30" fill="none" xmlns:v="https://vecta.io/nano"><defs><path id="A" d="M0 0h30v30H0z"/><path id="B" d="M0 0h20v20H0z"/></defs><g transform="matrix(1 0 0 1 0 0)"><mask id="D" fill="#fff"><use xlink:href="#A"/></mask><g mask="url(#D)"><g transform="matrix(1 0 0 1 5 5)"><mask id="D" fill="#fff"><use xlink:href="#B"/></mask><g mask="url(#D)"><path fill-rule="evenodd" transform="matrix(1 0 0 1 1.261707 1.265626)" d="M12.12.69C9.95-.23 7.5-.23 5.33.69 3.24 1.58 1.58 3.25.69 5.34.23 6.41 0 7.56 0 8.73v.44c.02.49.21.96.53 1.33a2.32 2.32 0 0 0 1.21.72c1.12.19 2.16.72 2.97 1.53a5.38 5.38 0 0 1 1.53 2.93 2.27 2.27 0 0 0 2.13 1.78h.36a8.6 8.6 0 0 0 3.39-.69c3.24-1.36 5.34-4.53 5.34-8.04 0-1.17-.23-2.32-.69-3.39A8.73 8.73 0 0 0 12.12.69zm-1.826 5.6c-.69-.4-1.42-.7-2.19-.9-.36-.09-.74-.03-1.06.16-.32.18-.56.48-.67.82-.22.76-.33 1.54-.32 2.32 0 .66.11 1.43.32 2.32a1.46 1.46 0 0 0 .66.86c.32.19.71.25 1.07.16a7.83 7.83 0 0 0 2.19-.87c.67-.4 1.28-.88 1.82-1.45.27-.26.41-.62.4-1 .01-.37-.13-.74-.4-1-.54-.56-1.15-1.04-1.82-1.42z" fill="#fe0e50"/></g></g></g></g></svg>
